docs/.gitbook/assets/icon-ruler-16@light.svg

<svg width="32" height="32" viewBox="0 0 16 16" fill="none" xmlns="http://www.w3.org/2000/svg">
<rect x="0" y="0" width="16" height="16" fill="#fff"/>
<path fill-rule="evenodd" clip-rule="evenodd" d="M10.5947 1.21967C10.8876 0.926777 11.3624 0.926777 11.6553 1.21967L14.7803 4.34467C15.0732 4.63756 15.0732 5.11244 14.7803 5.40533L5.40533 14.7803C5.11244 15.0732 4.63756 15.0732 4.34467 14.7803L1.21967 11.6553C0.926777 11.3624 0.926777 10.8876 1.21967 10.5947L10.5947 1.21967ZM2.81066 11.125L4.875 13.1893L13.1893 4.875L11.125 2.81066L9.99816 3.9375L10.7803 4.71967C11.0732 5.01256 11.0732 5.48744 10.7803 5.78033C10.4874 6.07322 10.0126 6.07322 9.71967 5.78033L8.9375 4.99816L7.49816 6.4375L8.29596 7.23529C8.58885 7.52819 8.58885 8.00306 8.29596 8.29596C8.00306 8.58885 7.52819 8.58885 7.23529 8.29596L6.4375 7.49816L4.99816 8.9375L5.78033 9.71967C6.07322 10.0126 6.07322 10.4874 5.78033 10.7803C5.48744 11.0732 5.01256 11.0732 4.71967 10.7803L3.9375 9.99816L2.81066 11.125Z" fill="#000"/>
</svg>

<svg xmlns="http://www.w3.org/2000/svg" width="32" height="32" fill="none" viewBox="0 0 16 16"><path fill="#fff" d="M0 0h16v16H0z"/><path fill="#000" fill-rule="evenodd" d="M10.595 1.22a.75.75 0 0 1 1.06 0l3.125 3.125a.75.75 0 0 1 0 1.06L5.405 14.78a.75.75 0 0 1-1.06 0L1.22 11.655a.75.75 0 0 1 0-1.06zM2.81 11.125l2.064 2.064 8.314-8.314-2.064-2.064-1.127 1.127.782.782a.75.75 0 1 1-1.06 1.06l-.783-.782-1.439 1.44.798.797a.75.75 0 0 1-1.06 1.061l-.798-.798-1.44 1.44.782.782a.75.75 0 1 1-1.06 1.06l-.782-.782z" clip-rule="evenodd"/></svg>
